X:1
T:Title
%%score { ( 1 3 ) | ( 2 4 ) }
L:1/8
Q:1/4=92
M:6/8
K:Eb
V:1 treble nm="Grand Piano"
V:3 treble 
V:2 bass 
V:4 bass 
V:1
 EFG [DF][DG]>[DF] | E3 B3 | A e2 A2 e | G6 | [DG][DF][_D=E] [=DF][DB][DG] | z3 E3 | GFE CDE | %7
w: Clinton~D.~Lowden * * * * *|||||||
[M:15/16] F3 [DB]3/2- [DB]3 |[M:3/4] EF G[DF] [DG]>[DF] | E3 B3 | A e2 A2 e | G6 | %12
w: |||||
 [DG][DF] [_D=E][=DF] [DB][DG] |[M:7/8] [DF]2 E d3 c |[M:3/4] [EB][EG] [EB][DG] [CG]>[DF] | %15
w: |||
[M:5/8] E-E- E3 |[M:1/8] B |[M:3/4] e4 z2 | d4 z2 | G2 G G2 G | A6 | d4 z2 | G4 z2 | E2 z .d3 | %24
w: |||||||||
 c2 z ._B3 | e4 z2 | d4 z2 | G2 z [B,_D] z2 | c-[CEAc-] [CEAc-] [CEAc]2 [CEAc] | %29
w: |||||
 e-[E_Ge-] [EGe] [EGd]2 [EGc] |[M:7/8] B-[EGB][EG] [=EGc]3 [CG] | %31
w: ||
[M:13/16] z/ z/ z/ z/ z [ABf]/-[ABf]-<[ABf] z |[M:3/4] e6 |] %33
w: ||
V:2
 [E,G,B,][E,A,B,][E,B,E] [B,,A,][B,,B,]>[B,,A,] | [E,G,]3 [G,_DE]3 | %2
 [A,CE] [A,CE]2 [A,=B,E]2 [A,B,E] | [E,B,E]6 | [B,,B,][B,,A,][B,,G,] [B,,A,][B,,F,][B,,B,] | %5
 [C,A,]3 .[C,G,]3 | [F,=A,E][F,A,D][F,A,C] [E,F,A,][D,F,A,][C,E,A,] | %7
[M:15/16] [B,,D,B,]3 [B,,A,]3/2- [B,,A,]3 |[M:3/4] [E,G,][E,A,B,] [E,B,E][B,,A,] [B,,B,]>[B,,A,] | %9
 [E,G,]3 [G,_DE]3 | [A,CE] [A,CE]2 [A,=B,E]2 [A,B,E] | [E,B,E]6 | %12
 [B,,B,][B,,A,] [B,,G,][B,,A,] [B,,F,][B,,B,] |[M:7/8] [C,G,]2 [C,G,C] [F,,F,=A,E]3 [F,A,E] | %14
[M:3/4] [B,,G,][B,,B,] [B,,G,][B,,B,] [B,,B,]>[B,,A,] |[M:5/8] E,-[E,-B,][E,-A,] [E,G,]2 | %16
[M:1/8][K:treble] B, |[M:3/4] [GB]G G [DEG]2 G, | .[EG]2 z2 z2 | [E,G,B,E]3 [=E,G,B,_D]3 | [B,D]6 | %21
 [FA]F F [CDF]2 [B,DF] | .[B,D]2 z2 z2 | E,-[E,G,][K:treble] [B,EG][E_G=A] [EG][CEGA] | %24
 [DFA][DF] [=B,DFA][DFA] [DF][_B,DFA] | [GB]G G [DEG]2 G, | .[EG]2 z2 z2[K:bass] | %27
 [E,,E,]2 .[E,,E,]2 B,G,, | A,E, C, A,,2 [A,,A,] | [=A,,=A,][A,,A,] [A,,A,] [A,,A,]2 [A,,A,] | %30
[M:7/8] [B,,B,][G,,G,][E,,E,] [C,,C,]3 [=E,,=E,] | %31
[M:13/16] [F,,F,][G,,G,][A,,A,][B,,B,][A,B,]3/2[E,E] |[M:3/4] [E,E][B,,B,] [G,,G,] [E,,E,]3 |] %33
V:3
 x6 | x6 | x6 | x6 | x6 | [DF]3 z2 B, | x6 |[M:15/16] x15/2 |[M:3/4] x6 | x6 | x6 | x6 | x6 | %13
[M:7/8] x7 |[M:3/4] x6 |[M:5/8] z DC B,2 |[M:1/8] x |[M:3/4] z B B d2 G | z G G c2 B | x6 | %20
 z2 z A,2 B | z A A c2 B | z D D F2 G | z B, .B2 =Ac | z A .=B2 A_B | z B B d2 G | z G G c2 B | %27
 [B,_D][B,D] [B,DG][F,F]- [F,DF][G,B,DE] | .[CEA]2 z2 z2 | .[E_G]2 z2 z2 |[M:7/8] [EG] z z z z z2 | %31
[M:13/16] [CFA][C=EB][CFc] z D3/2[GBe] |[M:3/4] [GB][EGB] [EGB] [EGB]3 |] %33
V:4
 x6 | x6 | x6 | x6 | x6 | x6 | x6 |[M:15/16] x15/2 |[M:3/4] x6 | x6 | x6 | x6 | x6 |[M:7/8] x7 | %14
[M:3/4] x6 |[M:5/8] G, z z z2 |[M:1/8][K:treble] x |[M:3/4] E4 z2 | D-[D-E] [DE] [CEG]2 [B,EG] | %19
 x6 | [F,A,]3 B,,2 B, | D4 z2 | G,-[G,-B,] [G,B,] [F,A,B,D]2 [G,A,B,D] | .[G,B,]2[K:treble] z .D3 | %24
 C2 z ._B,3 | E4 z2 | D-[D-E] [DE] [CEG]2[K:bass] [B,E] | z2 z .F,,3 | x6 | x6 |[M:7/8] x7 | %31
[M:13/16] x13/2 |[M:3/4] x6 |] %33

